src/images/characters/Zero_2.svg

<?xml version="1.0" encoding="UTF-8"?><svg id="a" xmlns="http://www.w3.org/2000/svg" viewBox="0 0 150 150"><defs><style>.b,.c{fill:none;stroke-linecap:round;}.b,.c,.d,.e{stroke-linejoin:round;}.b,.d{stroke:#ce7328;}.f{fill:#fff;}.g{fill:#ce7328;}.h{fill:#2dc5f4;}.c{stroke:#fff;stroke-width:.79px;}.d{fill:#fcee20;}.e{fill:#c5c6c8;stroke:#909395;}</style></defs><path class="e" d="M48.22,101.71c-2.52-1.2-21.19-13.52-32.12-28.7-.81-1.12-2.34-1.42-3.48-.64-.11,.08-.22,.16-.32,.26-.87,.83-1.02,2.19-.32,3.22,11.98,17.57,35.79,31.09,36.17,31.18,.14,.04,.29,.06,.43,.07"/><g><path class="e" d="M68.03,121.78c-.98,9.74-13.4,19.69-26.68,14.22-5.04-2.08-11.52-5.48-18.83-11.07-4.05,2.49-18.81,9.65-18.81,9.65l16.41-17.75c9.13,7.83,17.29,12.56,23.4,14.58,10.41,3.45,18.67-3.39,18.96-10.1"/><path class="e" d="M88.21,105.06c6.51,4.32,33.68,16.52,49.95,20.77,2.19-4.52,8.14-18.46,8.14-18.46l-3.19,26.17c-19.1-5.35-49.77-17.62-56.12-22.35"/></g><path class="e" d="M88.03,62.55c2.53-1.49,14.3-15.41,21.02-26.9,.7-1.19,2.23-1.59,3.42-.9,.12,.07,.23,.15,.33,.23,.93,.77,1.19,2.11,.56,3.19-10,17.12-21.44,29.26-21.81,29.38"/><path class="d" d="M92.44,39.05l-8.73-4.87-4.92,8.83c-8.24-9.46-18.22-14.09-27.39-11.48-15.86,4.51-22.41,28.66-14.93,54.99,1.95,6.84,4.63,13.06,7.8,18.44l-7.22,12.96,8.73,4.87,4.92-8.83c8.24,9.46,18.22,14.09,27.39,11.48,15.86-4.51,22.41-28.66,14.93-54.99-1.95-6.84-4.63-13.06-7.8-18.44l7.22-12.96Zm-46.36,44.73c-5.02-17.66-2.95-39.51,8.05-42.64,6.37-1.81,13.51,3.31,19.35,11.38l-23.36,41.92c-1.63-3.43-3.01-7.04-4.04-10.66Zm37.32-10.61c5.02,17.66,2.95,39.51-8.05,42.64-6.37,1.81-13.51-3.31-19.35-11.38l23.36-41.92c1.63,3.43,3.01,7.04,4.04,10.66Z"/><ellipse class="g" cx="73.09" cy="88.71" rx="2.49" ry="5.86" transform="translate(-21.47 23.36) rotate(-15.87)"/><path class="b" d="M70.79,95.87c-1.16-.85-2.99-2.16-4.33-.92-.53,.49-.8,1.21-.87,1.93-.74,6.87,9.25,11.91,14.52,7.71,1.29-1.03,2.09-2.51,2.29-4.14,.21-1.76-.21-4.58-2.21-5.18-3.01-.91-5.57,3-8.7,1.08-.24-.15-.47-.31-.69-.47Z"/><path class="h" d="M79.81,104.33s-4.17-4.47-7.46-2.63c-.13-.51-4.59-2.6-7.85,1.42-1.23,1.51-2.08,4.05-1.29,5,.87,1.03,3.97,3.64,10.57-2.51,.34,.17,3.81,.65,6.03-1.28Z"/><path class="c" d="M67.17,104.91c.07-.04,3.05-4.51,9.12-3.92"/><ellipse class="f" cx="73.53" cy="86.97" rx=".83" ry="1.57" transform="translate(-28.57 36.52) rotate(-23.49)"/><ellipse class="g" cx="79.2" cy="86.2" rx="2.49" ry="5.86" transform="translate(-20.55 24.94) rotate(-15.87)"/><ellipse class="f" cx="79.64" cy="84.46" rx=".83" ry="1.57" transform="translate(-27.07 38.74) rotate(-23.49)"/></svg>

<svg id="Layer_1" data-name="Layer 1" xmlns="http://www.w3.org/2000/svg" viewBox="0 0 150 150"><defs><style>.cls-1{fill:#c5c6c8;stroke:#909395;}.cls-1,.cls-2,.cls-4,.cls-6{stroke-linejoin:round;}.cls-2{fill:#fcee20;}.cls-2,.cls-4{stroke:#ce7328;}.cls-3{fill:#ce7328;}.cls-4,.cls-6{fill:none;stroke-linecap:round;}.cls-5{fill:#2dc5f4;}.cls-6{stroke:#fff;stroke-width:0.79px;}.cls-7{fill:#fff;}</style></defs><path class="cls-1" d="M48.22,101.71C45.71,100.51,27,88.19,16.11,73a2.53,2.53,0,0,0-3.48-.64,2.66,2.66,0,0,0-.31.26A2.51,2.51,0,0,0,12,75.85C24,93.42,47.79,106.94,48.17,107a2,2,0,0,0,.43.07"/><path class="cls-1" d="M68,121.78c-1,9.73-13.4,19.69-26.68,14.21a83.63,83.63,0,0,1-18.84-11.07c-4.05,2.49-18.81,9.65-18.81,9.65l16.42-17.76c9.13,7.84,17.29,12.56,23.39,14.58,10.41,3.45,18.68-3.39,19-10.1"/><path class="cls-1" d="M88.21,105.06c6.51,4.32,33.68,16.53,50,20.77,2.19-4.52,8.14-18.46,8.14-18.46l-3.19,26.17C124,128.19,93.33,115.92,87,111.19"/><path class="cls-1" d="M88,62.55c2.53-1.49,14.31-15.4,21-26.89a2.5,2.5,0,0,1,4.31,2.52c-10,17.12-21.43,29.26-21.8,29.39"/><path class="cls-2" d="M92.44,39.05l-8.73-4.87L78.78,43c-8.23-9.45-18.21-14.09-27.39-11.48C35.54,36,29,60.19,36.46,86.52A79.19,79.19,0,0,0,44.26,105l-7.22,13,8.73,4.87L50.69,114c8.24,9.46,18.22,14.09,27.39,11.48,15.86-4.5,22.42-28.66,14.93-55A78.57,78.57,0,0,0,85.22,52ZM46.08,83.79c-5-17.66-2.95-39.52,8.05-42.64,6.37-1.81,13.5,3.31,19.35,11.38L50.12,94.44A68.56,68.56,0,0,1,46.08,83.79ZM83.4,73.18c5,17.66,2.95,39.51-8.05,42.64C69,117.63,61.84,112.5,56,104.44L79.36,62.52A69.05,69.05,0,0,1,83.4,73.18Z"/><ellipse class="cls-3" cx="73.09" cy="88.71" rx="2.49" ry="5.86" transform="translate(-21.47 23.36) rotate(-15.87)"/><path class="cls-4" d="M70.79,95.87c-1.16-.85-3-2.16-4.33-.92a3.07,3.07,0,0,0-.88,1.93c-.74,6.87,9.25,11.9,14.52,7.71a6.17,6.17,0,0,0,2.29-4.15c.21-1.75-.21-4.58-2.21-5.18-3-.9-5.56,3-8.7,1.08C71.24,96.19,71,96,70.79,95.87Z"/><path class="cls-5" d="M79.81,104.33s-4.17-4.47-7.46-2.63c-.13-.51-4.59-2.6-7.85,1.41-1.23,1.51-2.08,4.06-1.29,5s4,3.64,10.57-2.51A7.42,7.42,0,0,0,79.81,104.33Z"/><path class="cls-6" d="M67.17,104.91A10.1,10.1,0,0,1,76.29,101"/><ellipse class="cls-7" cx="73.53" cy="86.97" rx="0.83" ry="1.57" transform="translate(-28.57 36.52) rotate(-23.49)"/><ellipse class="cls-3" cx="79.2" cy="86.2" rx="2.49" ry="5.86" transform="translate(-20.55 24.94) rotate(-15.87)"/><ellipse class="cls-7" cx="79.64" cy="84.46" rx="0.83" ry="1.57" transform="translate(-27.07 38.74) rotate(-23.49)"/></svg>
